src/images/icons/my-buys.svg

<svg width="22" height="22" viewBox="0 0 22 22" fill="none" xmlns="http://www.w3.org/2000/svg">
<path d="M10.7316 2.1019C10.6466 2.01665 10.5456 1.94904 10.4343 1.90294C10.3231 1.85685 10.2039 1.83319 10.0835 1.83331H5.50016C5.37977 1.83319 5.26054 1.85685 5.14932 1.90294C5.03811 1.94904 4.93709 2.01665 4.85208 2.1019L2.10208 4.8519C2.01679 4.93688 1.94915 5.03789 1.90306 5.14911C1.85696 5.26034 1.83332 5.37958 1.8335 5.49998V10.0833C1.8335 10.3271 1.92975 10.56 2.10208 10.7314L11.2687 19.8981C11.3537 19.9835 11.4547 20.0513 11.5659 20.0975C11.6771 20.1438 11.7964 20.1676 11.9168 20.1676C12.0373 20.1676 12.1566 20.1438 12.2678 20.0975C12.379 20.0513 12.48 19.9835 12.5649 19.8981L19.8982 12.5647C19.9834 12.4797 20.051 12.3787 20.0972 12.2674C20.1433 12.1562 20.167 12.037 20.167 11.9166C20.167 11.7963 20.1433 11.677 20.0972 11.5658C20.051 11.4546 19.9834 11.3536 19.8982 11.2686L10.7316 2.1019ZM11.9168 17.9538L3.66683 9.70381V5.87948L5.87966 3.66665H9.704L17.954 11.9166L11.9168 17.9538Z" fill="white"/>
<path d="M7.65672 9.16666C8.49053 9.16666 9.16647 8.49072 9.16647 7.65691C9.16647 6.82309 8.49053 6.14716 7.65672 6.14716C6.82291 6.14716 6.14697 6.82309 6.14697 7.65691C6.14697 8.49072 6.82291 9.16666 7.65672 9.16666Z" fill="white"/>
</svg>

<svg width="22" height="22" fill="none" xmlns="http://www.w3.org/2000/svg"><path d="M10.732 2.102a.913.913 0 0 0-.648-.269H5.5a.914.914 0 0 0-.648.269l-2.75 2.75a.913.913 0 0 0-.268.648v4.583c0 .244.096.477.268.648l9.167 9.167a.914.914 0 0 0 1.296 0l7.333-7.333a.916.916 0 0 0 0-1.296l-9.166-9.167zm1.185 15.852-8.25-8.25V5.879L5.88 3.667h3.824l8.25 8.25-6.037 6.037z" fill="#fff"/><path d="M7.657 9.167a1.51 1.51 0 1 0 0-3.02 1.51 1.51 0 0 0 0 3.02z" fill="#fff"/></svg>
